assets/logo-whitetext.svg

<svg width="488" height="183" viewBox="0 0 488 183" fill="none" xmlns="http://www.w3.org/2000/svg">
<path d="M218.04 59.8C218.872 59.8 219.544 60.056 220.056 60.568C220.632 61.08 220.92 61.752 220.92 62.584C220.92 63.416 220.632 64.088 220.056 64.6C219.544 65.048 218.872 65.272 218.04 65.272H198.168V124.12C198.168 124.952 197.88 125.656 197.304 126.232C196.728 126.744 196.024 127 195.192 127C194.296 127 193.56 126.744 192.984 126.232C192.472 125.656 192.216 124.952 192.216 124.12V65.272H172.344C171.512 65.272 170.808 65.016 170.232 64.504C169.72 63.992 169.464 63.32 169.464 62.488C169.464 61.72 169.72 61.08 170.232 60.568C170.808 60.056 171.512 59.8 172.344 59.8H218.04ZM271.262 99.64C271.262 100.408 270.974 101.08 270.398 101.656C269.822 102.168 269.15 102.424 268.382 102.424H232.094C232.094 106.264 232.862 109.72 234.398 112.792C235.998 115.8 238.238 118.2 241.118 119.992C244.062 121.72 247.518 122.584 251.486 122.584C254.558 122.584 257.31 121.944 259.742 120.664C262.174 119.384 264.126 117.752 265.598 115.768C266.302 115.192 266.974 114.904 267.614 114.904C268.254 114.904 268.83 115.16 269.342 115.672C269.854 116.184 270.11 116.76 270.11 117.4C270.11 118.104 269.79 118.776 269.15 119.416C267.102 121.912 264.51 123.96 261.374 125.56C258.302 127.16 255.038 127.96 251.582 127.96C246.654 127.96 242.302 126.904 238.526 124.792C234.75 122.68 231.806 119.736 229.694 115.96C227.582 112.12 226.526 107.704 226.526 102.712C226.526 97.464 227.55 92.888 229.598 88.984C231.71 85.016 234.494 82.008 237.95 79.96C241.406 77.848 245.086 76.792 248.99 76.792C252.83 76.792 256.414 77.688 259.742 79.48C263.134 81.272 265.886 83.896 267.998 87.352C270.11 90.808 271.198 94.904 271.262 99.64ZM248.99 82.36C245.278 82.36 241.822 83.64 238.622 86.2C235.486 88.76 233.47 92.44 232.574 97.24H265.31V96.472C264.99 93.592 264.03 91.096 262.43 88.984C260.83 86.808 258.814 85.176 256.382 84.088C254.014 82.936 251.55 82.36 248.99 82.36ZM332.949 77.944C333.781 77.944 334.453 78.232 334.965 78.808C335.541 79.384 335.829 80.088 335.829 80.92V124.12C335.829 124.952 335.541 125.656 334.965 126.232C334.453 126.744 333.781 127 332.949 127C332.117 127 331.413 126.744 330.837 126.232C330.325 125.656 330.069 124.952 330.069 124.12V117.688C328.469 120.568 326.069 123 322.869 124.984C319.669 126.968 316.181 127.96 312.405 127.96C308.117 127.96 304.245 126.84 300.789 124.6C297.397 122.36 294.709 119.288 292.725 115.384C290.805 111.48 289.845 107.096 289.845 102.232C289.845 97.368 290.837 93.016 292.821 89.176C294.805 85.272 297.493 82.232 300.885 80.056C304.341 77.88 308.149 76.792 312.309 76.792C316.149 76.792 319.669 77.72 322.869 79.576C326.069 81.432 328.469 83.864 330.069 86.872V80.92C330.069 80.088 330.325 79.384 330.837 78.808C331.413 78.232 332.117 77.944 332.949 77.944ZM312.981 122.584C316.309 122.584 319.285 121.72 321.909 119.992C324.597 118.2 326.677 115.768 328.149 112.696C329.685 109.56 330.453 106.072 330.453 102.232C330.453 98.52 329.685 95.128 328.149 92.056C326.677 88.984 324.597 86.584 321.909 84.856C319.285 83.064 316.309 82.168 312.981 82.168C309.653 82.168 306.645 83.032 303.957 84.76C301.333 86.488 299.253 88.888 297.717 91.96C296.245 94.968 295.509 98.392 295.509 102.232C295.509 106.072 296.245 109.56 297.717 112.696C299.189 115.768 301.237 118.2 303.861 119.992C306.549 121.72 309.589 122.584 312.981 122.584ZM366.795 124.12C366.795 124.952 366.507 125.656 365.931 126.232C365.419 126.744 364.747 127 363.915 127C363.083 127 362.379 126.744 361.803 126.232C361.291 125.656 361.035 124.952 361.035 124.12V58.84C361.035 58.008 361.291 57.336 361.803 56.824C362.379 56.248 363.083 55.96 363.915 55.96C364.747 55.96 365.419 56.248 365.931 56.824C366.507 57.336 366.795 58.008 366.795 58.84V124.12ZM441.144 59.8C441.976 59.8 442.648 60.088 443.16 60.664C443.736 61.176 444.024 61.848 444.024 62.68V102.424C444.024 107.096 442.904 111.384 440.664 115.288C438.424 119.192 435.384 122.264 431.544 124.504C427.704 126.744 423.48 127.864 418.872 127.864C414.2 127.864 409.944 126.744 406.104 124.504C402.264 122.264 399.224 119.192 396.984 115.288C394.744 111.384 393.624 107.096 393.624 102.424V62.68C393.624 61.848 393.88 61.176 394.392 60.664C394.968 60.088 395.736 59.8 396.696 59.8C397.464 59.8 398.136 60.088 398.712 60.664C399.288 61.176 399.576 61.848 399.576 62.68V102.424C399.576 106.008 400.44 109.304 402.168 112.312C403.896 115.32 406.232 117.72 409.176 119.512C412.184 121.24 415.416 122.104 418.872 122.104C422.392 122.104 425.624 121.24 428.568 119.512C431.576 117.72 433.944 115.32 435.672 112.312C437.464 109.304 438.36 106.008 438.36 102.424V62.68C438.36 61.848 438.616 61.176 439.128 60.664C439.64 60.088 440.312 59.8 441.144 59.8ZM477.71 124.024C477.646 124.856 477.326 125.56 476.75 126.136C476.174 126.712 475.47 127 474.638 127C473.742 127 473.006 126.744 472.43 126.232C471.918 125.656 471.662 124.92 471.662 124.024V62.776C471.662 61.88 471.95 61.176 472.526 60.664C473.102 60.088 473.838 59.8 474.734 59.8C475.566 59.8 476.27 60.088 476.846 60.664C477.422 61.24 477.71 61.944 477.71 62.776V124.024Z" fill="white"/>
<g filter="url(#filter0_d)">
<path d="M117.506 33.3864C121.794 33.393 125.752 35.6863 127.889 39.4024L154.199 85.1347C156.337 88.8508 156.33 93.4251 154.181 97.1347L127.73 142.786C125.581 146.495 121.616 148.776 117.329 148.77L64.5687 148.689C60.2815 148.682 56.3235 146.389 54.1856 142.673L27.8757 96.9404C25.7379 93.2243 25.7449 88.65 27.8942 84.9404L54.3446 39.2893C56.4939 35.5798 60.4589 33.2987 64.7461 33.3053L117.506 33.3864Z" fill="white"/>
</g>
<path d="M94.029 99.2257L118.357 141.246C119.708 143.58 118.024 146.5 115.328 146.5H66.6722C63.9761 146.5 62.2924 143.58 63.6432 141.246L87.971 99.2257C89.3191 96.8972 92.6809 96.8972 94.029 99.2257Z" fill="#69D2D2" stroke="white" stroke-width="3"/>
<path d="M87.971 82.7743L63.6432 40.7536C62.2924 38.4203 63.9761 35.5 66.6722 35.5L115.328 35.5C118.024 35.5 119.708 38.4203 118.357 40.7536L94.029 82.7743C92.6809 85.1028 89.3191 85.1028 87.971 82.7743Z" fill="#1E7E7E" stroke="white" stroke-width="3"/>
<path d="M127.029 42.2257L151.357 84.2464C152.708 86.5797 151.024 89.5 148.328 89.5H99.6722C96.9761 89.5 95.2924 86.5797 96.6432 84.2464L120.971 42.2257C122.319 39.8972 125.681 39.8972 127.029 42.2257Z" fill="#259E9E" stroke="white" stroke-width="3"/>
<path d="M120.971 139.774L96.6432 97.7536C95.2924 95.4203 96.9761 92.5 99.6722 92.5H148.328C151.024 92.5 152.708 95.4203 151.357 97.7536L127.029 139.774C125.681 142.103 122.319 142.103 120.971 139.774Z" fill="#1E7E7E" stroke="white" stroke-width="3"/>
<mask id="path-7-inside-1" fill="white">
<path fill-rule="evenodd" clip-rule="evenodd" d="M88.9695 94.5073C90.2255 92.3378 90.2255 89.6622 88.9695 87.4927L64.058 44.4638C61.3618 39.8068 54.6382 39.8068 51.942 44.4638L27.0305 87.4927C25.7745 89.6622 25.7745 92.3378 27.0305 94.5073L51.942 137.536C54.6382 142.193 61.3618 142.193 64.058 137.536L88.9695 94.5073Z"/>
</mask>
<path fill-rule="evenodd" clip-rule="evenodd" d="M88.9695 94.5073C90.2255 92.3378 90.2255 89.6622 88.9695 87.4927L64.058 44.4638C61.3618 39.8068 54.6382 39.8068 51.942 44.4638L27.0305 87.4927C25.7745 89.6622 25.7745 92.3378 27.0305 94.5073L51.942 137.536C54.6382 142.193 61.3618 142.193 64.058 137.536L88.9695 94.5073Z" fill="#165F5F"/>
<path d="M27.0305 87.4927L23.5688 85.4886L27.0305 87.4927ZM27.0305 94.5073L23.5688 96.5114L27.0305 94.5073ZM88.9695 87.4927L92.4312 85.4886L88.9695 87.4927ZM88.9695 94.5073L92.4312 96.5114L88.9695 94.5073ZM64.058 44.4638L60.5963 46.4679L64.058 44.4638ZM60.5963 46.4679L85.5078 89.4969L92.4312 85.4886L67.5197 42.4596L60.5963 46.4679ZM30.4922 89.4969L55.4037 46.4679L48.4803 42.4596L23.5688 85.4886L30.4922 89.4969ZM55.4037 135.532L30.4922 92.5031L23.5688 96.5114L48.4803 139.54L55.4037 135.532ZM85.5078 92.5031L60.5963 135.532L67.5197 139.54L92.4312 96.5114L85.5078 92.5031ZM48.4803 139.54C52.7171 146.858 63.2829 146.859 67.5197 139.54L60.5963 135.532C59.4408 137.528 56.5592 137.528 55.4037 135.532L48.4803 139.54ZM23.5688 85.4886C21.5951 88.8978 21.5951 93.1022 23.5688 96.5114L30.4922 92.5031C29.9539 91.5733 29.9539 90.4267 30.4922 89.4969L23.5688 85.4886ZM85.5078 89.4969C86.0461 90.4267 86.0461 91.5733 85.5078 92.5031L92.4312 96.5114C94.4049 93.1022 94.4049 88.8978 92.4312 85.4886L85.5078 89.4969ZM67.5197 42.4596C63.2829 35.1415 52.7171 35.1415 48.4803 42.4596L55.4037 46.4679C56.5592 44.4721 59.4408 44.4721 60.5963 46.4679L67.5197 42.4596Z" fill="white" mask="url(#path-7-inside-1)"/>
<defs>
<filter id="filter0_d" x="4.6049" y="3.04454" width="172.865" height="178.01" filterUnits="userSpaceOnUse" color-interpolation-filters="sRGB">
<feFlood flood-opacity="0" result="BackgroundImageFix"/>
<feColorMatrix in="SourceAlpha" type="matrix" values="0 0 0 0 0 0 0 0 0 0 0 0 0 0 0 0 0 0 127 0"/>
<feOffset dy="1.01203"/>
<feGaussianBlur stdDeviation="2.02406"/>
<feColorMatrix type="matrix" values="0 0 0 0 0 0 0 0 0 0 0 0 0 0 0 0 0 0 0.25 0"/>
<feBlend mode="normal" in2="BackgroundImageFix" result="effect1_dropShadow"/>
<feBlend mode="normal" in="SourceGraphic" in2="effect1_dropShadow" result="shape"/>
</filter>
</defs>
</svg>

<svg fill="none" xmlns="http://www.w3.org/2000/svg" viewBox="0 0 488 183"><path d="M218.04 59.8c.832 0 1.504.256 2.016.768.576.512.864 1.184.864 2.016 0 .832-.288 1.504-.864 2.016-.512.448-1.184.672-2.016.672h-19.872v58.848c0 .832-.288 1.536-.864 2.112-.576.512-1.28.768-2.112.768-.896 0-1.632-.256-2.208-.768-.512-.576-.768-1.28-.768-2.112V65.272h-19.872c-.832 0-1.536-.256-2.112-.768-.512-.512-.768-1.184-.768-2.016 0-.768.256-1.408.768-1.92.576-.512 1.28-.768 2.112-.768h45.696zm53.222 39.84c0 .768-.288 1.44-.864 2.016a2.94 2.94 0 01-2.016.768h-36.288c0 3.84.768 7.296 2.304 10.368 1.6 3.008 3.84 5.408 6.72 7.2 2.944 1.728 6.4 2.592 10.368 2.592 3.072 0 5.824-.64 8.256-1.92 2.432-1.28 4.384-2.912 5.856-4.896.704-.576 1.376-.864 2.016-.864.64 0 1.216.256 1.728.768s.768 1.088.768 1.728c0 .704-.32 1.376-.96 2.016-2.048 2.496-4.64 4.544-7.776 6.144a20.9 20.9 0 01-9.792 2.4c-4.928 0-9.28-1.056-13.056-3.168s-6.72-5.056-8.832-8.832c-2.112-3.84-3.168-8.256-3.168-13.248 0-5.248 1.024-9.824 3.072-13.728 2.112-3.968 4.896-6.976 8.352-9.024 3.456-2.112 7.136-3.168 11.04-3.168 3.84 0 7.424.896 10.752 2.688 3.392 1.792 6.144 4.416 8.256 7.872 2.112 3.456 3.2 7.552 3.264 12.288zM248.99 82.36c-3.712 0-7.168 1.28-10.368 3.84-3.136 2.56-5.152 6.24-6.048 11.04h32.736v-.768c-.32-2.88-1.28-5.376-2.88-7.488-1.6-2.176-3.616-3.808-6.048-4.896-2.368-1.152-4.832-1.728-7.392-1.728zm83.959-4.416c.832 0 1.504.288 2.016.864.576.576.864 1.28.864 2.112v43.2c0 .832-.288 1.536-.864 2.112-.512.512-1.184.768-2.016.768-.832 0-1.536-.256-2.112-.768-.512-.576-.768-1.28-.768-2.112v-6.432c-1.6 2.88-4 5.312-7.2 7.296s-6.688 2.976-10.464 2.976c-4.288 0-8.16-1.12-11.616-3.36-3.392-2.24-6.08-5.312-8.064-9.216-1.92-3.904-2.88-8.288-2.88-13.152 0-4.864.992-9.216 2.976-13.056 1.984-3.904 4.672-6.944 8.064-9.12 3.456-2.176 7.264-3.264 11.424-3.264 3.84 0 7.36.928 10.56 2.784 3.2 1.856 5.6 4.288 7.2 7.296V80.92c0-.832.256-1.536.768-2.112.576-.576 1.28-.864 2.112-.864zm-19.968 44.64c3.328 0 6.304-.864 8.928-2.592 2.688-1.792 4.768-4.224 6.24-7.296 1.536-3.136 2.304-6.624 2.304-10.464 0-3.712-.768-7.104-2.304-10.176-1.472-3.072-3.552-5.472-6.24-7.2-2.624-1.792-5.6-2.688-8.928-2.688-3.328 0-6.336.864-9.024 2.592-2.624 1.728-4.704 4.128-6.24 7.2-1.472 3.008-2.208 6.432-2.208 10.272s.736 7.328 2.208 10.464c1.472 3.072 3.52 5.504 6.144 7.296 2.688 1.728 5.728 2.592 9.12 2.592zm53.814 1.536c0 .832-.288 1.536-.864 2.112-.512.512-1.184.768-2.016.768-.832 0-1.536-.256-2.112-.768-.512-.576-.768-1.28-.768-2.112V58.84c0-.832.256-1.504.768-2.016.576-.576 1.28-.864 2.112-.864.832 0 1.504.288 2.016.864.576.512.864 1.184.864 2.016v65.28zm74.349-64.32c.832 0 1.504.288 2.016.864.576.512.864 1.184.864 2.016v39.744c0 4.672-1.12 8.96-3.36 12.864-2.24 3.904-5.28 6.976-9.12 9.216-3.84 2.24-8.064 3.36-12.672 3.36-4.672 0-8.928-1.12-12.768-3.36-3.84-2.24-6.88-5.312-9.12-9.216-2.24-3.904-3.36-8.192-3.36-12.864V62.68c0-.832.256-1.504.768-2.016.576-.576 1.344-.864 2.304-.864.768 0 1.44.288 2.016.864.576.512.864 1.184.864 2.016v39.744c0 3.584.864 6.88 2.592 9.888 1.728 3.008 4.064 5.408 7.008 7.2 3.008 1.728 6.24 2.592 9.696 2.592 3.52 0 6.752-.864 9.696-2.592 3.008-1.792 5.376-4.192 7.104-7.2 1.792-3.008 2.688-6.304 2.688-9.888V62.68c0-.832.256-1.504.768-2.016.512-.576 1.184-.864 2.016-.864zm36.566 64.224a3.243 3.243 0 01-.96 2.112c-.576.576-1.28.864-2.112.864-.896 0-1.632-.256-2.208-.768-.512-.576-.768-1.312-.768-2.208V62.776c0-.896.288-1.6.864-2.112.576-.576 1.312-.864 2.208-.864.832 0 1.536.288 2.112.864.576.576.864 1.28.864 2.112v61.248z" fill="#fff"/><g filter="url(#filter0_d)"><path d="M117.506 33.386c4.288.007 8.246 2.3 10.383 6.016l26.31 45.733a12 12 0 01-.018 12l-26.451 45.651a12.001 12.001 0 01-10.401 5.984l-52.76-.081a12.001 12.001 0 01-10.383-6.016L27.876 96.94a12 12 0 01.018-12l26.45-45.65a12 12 0 0110.402-5.985l52.76.081z" fill="#fff"/></g><path d="M87.971 99.226c1.348-2.329 4.71-2.329 6.058 0l24.328 42.02c1.351 2.334-.333 5.254-3.029 5.254H66.672c-2.696 0-4.38-2.92-3.029-5.254l24.328-42.02z" fill="#69D2D2" stroke="#fff" stroke-width="3"/><path d="M94.029 82.774c-1.348 2.329-4.71 2.329-6.058 0l-24.328-42.02c-1.35-2.334.333-5.254 3.03-5.254h48.655c2.696 0 4.38 2.92 3.029 5.254l-24.328 42.02z" fill="#1E7E7E" stroke="#fff" stroke-width="3"/><path d="M120.971 42.226c1.348-2.329 4.71-2.329 6.058 0l24.328 42.02c1.351 2.334-.333 5.254-3.029 5.254H99.672c-2.696 0-4.38-2.92-3.029-5.254l24.328-42.02z" fill="#259E9E" stroke="#fff" stroke-width="3"/><path d="M127.029 139.774c-1.348 2.329-4.71 2.329-6.058 0l-24.328-42.02c-1.35-2.334.333-5.254 3.03-5.254h48.655c2.696 0 4.38 2.92 3.029 5.254l-24.328 42.02z" fill="#1E7E7E" stroke="#fff" stroke-width="3"/><path fill-rule="evenodd" clip-rule="evenodd" d="M87.703 93.773a5 5 0 000-4.79l-23.788-43.59c-1.895-3.474-6.882-3.474-8.778 0L31.35 88.983a5 5 0 000 4.79l23.787 43.59c1.896 3.473 6.883 3.473 8.778 0l23.788-43.59z" fill="#165F5F"/><defs><filter id="filter0_d" x="4.605" y="3.045" width="172.865" height="178.01" filterUnits="userSpaceOnUse" color-interpolation-filters="sRGB"><feFlood flood-opacity="0" result="BackgroundImageFix"/><feColorMatrix in="SourceAlpha" values="0 0 0 0 0 0 0 0 0 0 0 0 0 0 0 0 0 0 127 0"/><feOffset dy="1.012"/><feGaussianBlur stdDeviation="2.024"/><feColorMatrix values="0 0 0 0 0 0 0 0 0 0 0 0 0 0 0 0 0 0 0.25 0"/><feBlend in2="BackgroundImageFix" result="effect1_dropShadow"/><feBlend in="SourceGraphic" in2="effect1_dropShadow" result="shape"/></filter></defs></svg>
